<?xml version="1.0" encoding="UTF-8"?>
<map version="1.10" tiledversion="1.12.1" orientation="orthogonal" renderorder="right-down" width="20" height="20" tilewidth="16" tileheight="16" infinite="1" nextlayerid="9" nextobjectid="1">
 <tileset firstgid="1" source="Tileset/Tileset Spring.tsx"/>
 <tileset firstgid="241" source="Tileset/House.tsx"/>
 <tileset firstgid="339" source="Tileset/Maple Tree.tsx"/>
 <tileset firstgid="369" source="Tileset/Fence's copiar.tsx"/>
 <tileset firstgid="384" source="Tileset/Walk.tsx"/>
 <tileset firstgid="456" source="Tileset/Male Cow Brown.tsx"/>
 <tileset firstgid="504" source="Tileset/Road copiar.tsx"/>
 <tileset firstgid="524" source="Tileset/Chicken Blonde  Green.tsx"/>
 <tileset firstgid="532" source="Tileset/Baby Chicken Yellow.tsx"/>
 <tileset firstgid="544" source="Tileset/Female Cow Brown.tsx"/>
 <tileset firstgid="592" source="Tileset/Outdoor_Decor_Free.tsx"/>
 <tileset firstgid="676" source="Tileset/free_pixel_16_woods.tsx"/>
 <tileset firstgid="940" source="Tileset/Player.tsx"/>
 <tileset firstgid="1180" source="Tileset/Player_Actions.tsx"/>
 <tileset firstgid="1396" source="Tileset/Wood Bridge.tsx"/>
 <tileset firstgid="1411" source="Tileset/Oak_Tree.tsx"/>
 <tileset firstgid="1431" source="Tileset/Houses Sprite Sheet.tsx"/>
 <layer id="1" name="Tile Layer 1" width="20" height="20">
  <data encoding="csv">
   <chunk x="-7504" y="-48" width="16" height="16">
0,0,0,0,0,0,0,0,0,0,0,0,0,0,0,0,
0,0,0,0,0,0,0,0,0,0,0,0,0,0,0,0,
0,0,0,0,0,0,0,0,0,0,0,0,0,0,0,0,
0,0,0,0,0,0,0,0,0,0,0,0,0,0,0,0,
0,0,0,0,0,0,0,0,0,0,0,0,0,0,0,0,
0,0,0,0,0,0,0,0,0,0,0,0,0,0,0,0,
0,0,0,0,0,0,0,0,0,0,0,0,0,0,0,0,
0,0,0,0,0,0,0,0,0,0,0,0,0,0,0,0,
0,0,0,0,0,0,0,0,0,0,0,0,0,0,0,0,
0,0,0,0,0,0,0,0,0,0,0,0,0,0,0,0,
0,0,0,0,0,0,0,0,0,0,0,0,0,0,0,0,
0,0,0,0,0,0,0,0,0,0,0,0,0,0,0,0,
0,0,0,0,0,0,0,0,0,0,0,0,0,0,0,0,
0,0,0,0,0,0,0,0,0,0,0,0,0,0,0,0,
0,0,0,0,0,0,861,226,226,226,226,226,226,226,226,226,
0,0,0,0,0,0,861,226,226,226,226,226,226,226,226,226
</chunk>
   <chunk x="-7488" y="-48" width="16" height="16">
0,0,0,0,0,0,0,0,0,0,0,0,0,0,0,0,
0,0,0,0,0,0,0,0,0,0,0,0,0,0,0,0,
0,0,0,0,0,0,0,0,0,0,0,0,0,0,0,0,
0,0,0,0,0,0,0,0,0,0,0,0,0,0,0,0,
0,0,0,0,0,0,0,0,0,0,0,0,0,0,0,0,
0,0,0,0,0,0,0,0,0,0,0,0,0,0,0,0,
0,0,0,0,0,0,0,0,0,0,0,0,0,0,0,0,
0,0,0,0,0,0,0,0,0,0,0,0,0,0,0,0,
0,0,0,0,0,0,0,0,0,0,0,0,0,0,0,0,
0,0,0,0,0,0,0,0,0,0,0,0,0,0,0,0,
0,0,0,0,0,0,0,0,0,0,0,0,0,0,0,0,
0,0,0,0,0,0,0,0,0,0,0,0,0,0,0,0,
0,0,0,0,0,0,0,0,0,0,0,0,0,0,0,0,
0,0,0,0,0,0,0,0,0,0,0,0,0,0,0,0,
226,226,226,226,226,226,226,226,226,226,226,226,226,226,226,226,
226,226,226,226,226,226,226,226,226,226,226,226,226,226,226,226
</chunk>
   <chunk x="-7472" y="-48" width="16" height="16">
0,0,0,0,0,0,0,0,0,0,0,0,0,0,0,0,
0,0,0,0,0,0,0,0,0,0,0,0,0,0,0,0,
0,0,0,0,0,0,0,0,0,0,0,0,0,0,0,0,
0,0,0,0,0,0,0,0,0,0,0,0,0,0,0,0,
0,0,0,0,0,0,0,0,0,0,0,0,0,0,0,0,
0,0,0,0,0,0,0,0,0,0,0,0,0,0,0,0,
0,0,0,0,0,0,0,0,0,0,0,0,0,0,0,0,
0,0,0,0,0,0,0,0,0,0,0,0,0,0,0,0,
0,0,0,0,0,0,0,0,0,0,0,0,0,0,0,0,
0,0,0,0,0,0,0,0,0,0,0,0,0,0,0,0,
0,0,0,0,0,0,0,0,0,0,0,0,0,0,0,0,
0,0,0,0,0,0,0,0,0,0,0,0,0,0,0,0,
0,0,0,0,0,0,0,0,0,0,0,0,0,0,0,0,
0,0,0,0,0,0,0,0,0,0,0,0,0,0,0,0,
226,226,865,821,861,226,226,165,180,226,226,226,226,0,0,0,
226,226,865,821,861,226,226,165,180,226,226,226,226,0,0,0
</chunk>
   <chunk x="-7504" y="-32" width="16" height="16">
0,0,0,0,0,821,861,226,226,226,226,226,226,226,226,226,
0,0,0,0,0,821,861,226,226,226,226,226,226,226,226,226,
0,0,0,0,0,821,861,226,226,153,155,155,155,155,155,155,
0,0,0,0,0,821,861,226,226,189,190,190,190,190,190,190,
0,0,0,0,0,821,861,226,226,226,226,226,226,226,226,226,
0,0,0,0,0,821,861,226,226,226,226,226,226,226,226,226,
0,0,0,0,0,821,883,883,0,0,0,0,0,0,0,0,
0,0,0,0,0,821,821,821,821,821,821,821,821,821,821,821,
0,0,0,0,0,821,818,819,819,819,819,819,819,819,819,819,
0,0,0,0,0,821,861,226,226,226,226,226,226,226,226,226,
0,0,0,0,0,821,861,226,226,105,107,107,107,108,226,226,
0,0,0,0,0,821,861,226,226,117,178,130,130,132,226,226,
0,0,0,0,0,821,861,226,226,117,130,178,178,130,107,107,
0,0,0,0,0,821,861,226,226,117,130,178,178,130,142,142,
0,0,0,0,0,821,861,226,226,117,130,130,178,132,226,226,
0,0,0,0,0,821,861,226,226,141,142,142,142,144,226,226
</chunk>
   <chunk x="-7488" y="-32" width="16" height="16">
226,226,226,226,226,226,226,226,226,226,226,226,226,226,226,226,
226,226,226,226,226,226,226,226,226,226,226,226,226,153,155,155,
155,155,155,155,155,155,155,155,155,155,155,155,155,178,190,190,
190,190,190,190,190,190,190,190,190,190,190,190,178,180,226,226,
226,226,226,226,226,226,226,226,226,226,226,226,165,180,226,226,
226,226,226,226,226,226,226,226,226,226,226,226,165,180,226,226,
0,0,0,0,0,0,0,0,0,0,0,0,0,0,0,0,
821,821,821,821,821,821,821,821,821,821,821,0,0,0,0,0,
819,819,819,819,819,819,819,819,819,819,819,0,819,819,0,0,
226,226,226,226,226,226,226,226,226,226,226,226,165,180,226,226,
226,226,226,226,226,226,226,226,226,226,226,226,165,180,226,226,
226,226,226,226,226,226,226,226,226,226,226,226,165,180,226,226,
107,107,107,107,107,107,107,107,107,107,107,107,178,178,107,107,
142,142,142,142,142,142,142,142,190,190,142,142,190,190,190,178,
226,226,226,226,226,226,226,226,226,226,226,226,226,226,226,165,
226,226,226,226,226,226,226,226,226,226,226,226,226,226,226,165
</chunk>
   <chunk x="-7472" y="-32" width="16" height="16">
226,226,865,821,861,226,226,165,180,226,226,226,226,0,0,0,
155,155,865,821,861,155,155,178,180,226,226,226,226,0,0,0,
190,190,865,821,861,190,190,178,180,226,226,226,226,0,0,0,
226,226,865,821,861,226,226,165,180,226,226,226,226,0,0,0,
226,226,865,821,861,226,226,165,180,226,226,226,226,0,0,0,
226,226,0,821,861,226,226,165,180,226,226,226,226,0,0,0,
0,0,0,821,861,226,226,165,180,226,226,226,226,0,0,0,
0,0,0,821,861,226,226,165,180,226,226,226,226,0,0,0,
0,0,0,819,840,226,226,165,180,226,226,226,226,0,0,0,
226,226,226,226,226,226,226,165,180,226,226,226,226,0,0,0,
226,226,226,226,226,226,226,165,180,226,226,226,226,0,0,0,
226,226,226,226,226,226,226,165,180,226,226,226,226,0,0,0,
108,226,226,226,226,226,226,165,180,226,226,226,226,0,0,0,
180,226,226,226,226,226,226,165,180,226,226,226,226,0,0,0,
178,155,155,155,155,155,155,178,180,226,226,226,226,0,0,0,
178,190,190,190,190,190,190,178,180,226,226,226,226,0,0,0
</chunk>
   <chunk x="-7504" y="-16" width="16" height="16">
0,0,0,0,0,821,861,226,226,226,226,226,226,226,226,226,
0,0,0,0,0,821,861,226,226,226,226,226,226,226,226,226,
0,0,0,0,0,821,861,226,226,226,226,226,226,226,226,226,
0,0,0,0,0,821,861,226,226,226,226,226,226,226,226,226,
0,0,0,0,0,821,861,226,226,226,226,226,226,226,226,226,
0,0,0,0,0,821,861,226,226,226,226,226,226,226,226,226,
0,0,0,0,0,821,861,226,226,226,226,226,226,226,226,226,
0,0,0,0,0,821,861,226,226,226,226,226,226,226,226,226,
0,0,0,0,0,821,861,226,226,226,153,107,107,107,107,107,
0,0,0,0,0,821,861,226,226,226,189,190,190,190,190,190,
0,0,0,0,0,821,861,226,226,226,226,226,226,226,226,226,
0,0,0,0,0,821,883,907,884,226,226,226,226,226,226,226,
0,0,0,0,0,821,821,821,906,907,907,907,884,226,226,226,
0,0,0,0,0,821,821,821,821,821,821,821,906,907,907,907,
0,0,0,0,0,821,821,821,821,821,821,821,821,821,821,821,
0,0,0,0,0,821,821,821,821,821,821,821,821,821,821,821
</chunk>
   <chunk x="-7488" y="-16" width="16" height="16">
226,226,226,226,226,226,226,226,226,226,226,226,226,226,226,165,
226,226,226,226,226,226,226,226,226,226,226,226,226,226,226,165,
226,226,226,226,226,226,226,226,226,226,226,226,226,226,226,165,
226,226,226,226,226,226,226,226,226,226,226,226,226,226,226,165,
226,226,226,226,226,226,226,226,226,226,226,226,226,226,226,165,
226,226,226,226,226,226,226,226,226,226,226,226,226,226,226,165,
226,226,226,226,226,226,226,153,156,226,226,226,226,226,226,117,
226,226,226,226,226,226,226,165,180,226,226,226,226,226,226,165,
107,107,107,107,107,107,107,178,178,107,107,107,107,107,107,130,
190,190,190,190,190,190,190,190,190,190,190,190,190,190,190,190,
226,226,226,226,226,226,226,226,226,226,226,226,226,226,226,226,
226,226,226,226,226,226,226,226,226,226,226,226,226,226,226,226,
226,226,226,226,226,226,226,226,226,226,226,226,226,226,226,226,
884,226,226,226,226,226,226,226,226,226,226,226,226,226,226,226,
906,907,884,226,226,226,226,226,226,226,226,226,226,226,226,226,
821,821,861,226,226,226,226,226,226,226,226,226,226,226,226,226
</chunk>
   <chunk x="-7472" y="-16" width="16" height="16">
180,226,226,226,226,226,226,165,180,226,226,226,226,0,0,0,
180,226,226,226,226,226,226,165,180,226,226,226,226,0,0,0,
180,226,226,226,226,226,226,165,180,226,226,226,226,0,0,0,
180,226,226,226,226,226,226,165,180,226,226,226,226,0,0,0,
180,226,226,226,226,226,226,165,180,226,226,226,226,0,0,0,
180,226,226,226,226,226,226,165,180,226,226,226,226,0,0,0,
180,226,226,226,226,226,226,165,180,226,226,226,226,0,0,0,
180,226,226,226,226,226,153,178,178,156,226,226,226,0,0,0,
178,155,155,155,155,155,178,178,178,180,226,226,226,0,0,0,
190,190,190,190,190,190,178,178,178,180,226,226,226,0,0,0,
226,226,226,226,226,226,165,178,178,180,226,226,226,0,0,0,
226,226,226,226,226,226,165,178,178,180,226,226,226,0,0,0,
226,226,226,226,226,226,189,190,190,192,226,226,226,0,0,0,
226,226,226,226,226,226,226,226,226,226,226,226,226,0,0,0,
226,226,226,226,226,226,226,226,226,226,226,226,226,0,0,0,
226,226,226,226,226,226,226,226,226,226,226,226,226,0,0,0
</chunk>
   <chunk x="-7504" y="0" width="16" height="16">
0,0,0,0,0,821,821,821,821,821,821,821,821,821,821,821,
0,0,0,0,0,0,0,0,0,0,0,0,0,0,0,0,
0,0,0,0,0,0,0,0,0,0,0,0,0,0,0,0,
0,0,0,0,0,0,0,0,0,0,0,0,0,0,0,0,
0,0,0,0,0,0,0,0,0,0,0,0,0,0,0,0,
0,0,0,0,0,0,0,0,0,0,0,0,0,0,0,0,
0,0,0,0,0,0,0,0,0,0,0,0,0,0,0,0,
0,0,0,0,0,0,0,0,0,0,0,0,0,0,0,0,
0,0,0,0,0,0,0,0,0,0,0,0,0,0,0,0,
0,0,0,0,0,0,0,0,0,0,0,0,0,0,0,0,
0,0,0,0,0,0,0,0,0,0,0,0,0,0,0,0,
0,0,0,0,0,0,0,0,0,0,0,0,0,0,0,0,
0,0,0,0,0,0,0,0,0,0,0,0,0,0,0,0,
0,0,0,0,0,0,0,0,0,0,0,0,0,0,0,0,
0,0,0,0,0,0,0,0,0,0,0,0,0,0,0,0,
0,0,0,0,0,0,0,0,0,0,0,0,0,0,0,0
</chunk>
   <chunk x="-7488" y="0" width="16" height="16">
821,821,861,226,226,226,226,226,226,226,226,226,226,226,226,226,
0,0,0,0,0,0,0,0,0,0,0,0,0,0,0,0,
0,0,0,0,0,0,0,0,0,0,0,0,0,0,0,0,
0,0,0,0,0,0,0,0,0,0,0,0,0,0,0,0,
0,0,0,0,0,0,0,0,0,0,0,0,0,0,0,0,
0,0,0,0,0,0,0,0,0,0,0,0,0,0,0,0,
0,0,0,0,0,0,0,0,0,0,0,0,0,0,0,0,
0,0,0,0,0,0,0,0,0,0,0,0,0,0,0,0,
0,0,0,0,0,0,0,0,0,0,0,0,0,0,0,0,
0,0,0,0,0,0,0,0,0,0,0,0,0,0,0,0,
0,0,0,0,0,0,0,0,0,0,0,0,0,0,0,0,
0,0,0,0,0,0,0,0,0,0,0,0,0,0,0,0,
0,0,0,0,0,0,0,0,0,0,0,0,0,0,0,0,
0,0,0,0,0,0,0,0,0,0,0,0,0,0,0,0,
0,0,0,0,0,0,0,0,0,0,0,0,0,0,0,0,
0,0,0,0,0,0,0,0,0,0,0,0,0,0,0,0
</chunk>
   <chunk x="-7472" y="0" width="16" height="16">
226,226,226,226,226,226,226,226,226,226,226,226,226,0,0,0,
0,0,0,0,0,0,0,0,0,0,0,0,0,0,0,0,
0,0,0,0,0,0,0,0,0,0,0,0,0,0,0,0,
0,0,0,0,0,0,0,0,0,0,0,0,0,0,0,0,
0,0,0,0,0,0,0,0,0,0,0,0,0,0,0,0,
0,0,0,0,0,0,0,0,0,0,0,0,0,0,0,0,
0,0,0,0,0,0,0,0,0,0,0,0,0,0,0,0,
0,0,0,0,0,0,0,0,0,0,0,0,0,0,0,0,
0,0,0,0,0,0,0,0,0,0,0,0,0,0,0,0,
0,0,0,0,0,0,0,0,0,0,0,0,0,0,0,0,
0,0,0,0,0,0,0,0,0,0,0,0,0,0,0,0,
0,0,0,0,0,0,0,0,0,0,0,0,0,0,0,0,
0,0,0,0,0,0,0,0,0,0,0,0,0,0,0,0,
0,0,0,0,0,0,0,0,0,0,0,0,0,0,0,0,
0,0,0,0,0,0,0,0,0,0,0,0,0,0,0,0,
0,0,0,0,0,0,0,0,0,0,0,0,0,0,0,0
</chunk>
  </data>
 </layer>
 <layer id="5" name="belakang komponen aset1" width="20" height="20">
  <data encoding="csv">
   <chunk x="-7504" y="-48" width="16" height="16">
0,0,0,0,0,0,0,0,0,0,0,0,0,0,0,0,
0,0,0,0,0,0,0,0,0,0,0,0,0,0,0,0,
0,0,0,0,0,0,0,0,0,0,0,0,0,0,0,0,
0,0,0,0,0,0,0,0,0,0,0,0,0,0,0,0,
0,0,0,0,0,0,0,0,0,0,0,0,0,0,0,0,
0,0,0,0,0,0,0,0,0,0,0,0,0,0,0,0,
0,0,0,0,0,0,0,0,0,0,0,0,0,0,0,0,
0,0,0,0,0,0,0,0,0,0,0,0,0,0,0,0,
0,0,0,0,0,0,0,0,0,0,0,0,0,0,0,0,
0,0,0,0,0,0,0,0,0,0,0,0,0,0,0,0,
0,0,0,0,0,0,0,0,0,0,0,0,0,0,0,0,
0,0,0,0,0,0,0,0,0,0,0,0,0,0,0,0,
0,0,0,0,0,0,0,0,0,0,0,0,0,0,0,0,
0,0,0,0,0,0,0,0,0,0,0,0,0,0,0,0,
0,0,0,0,0,821,0,0,0,0,0,0,0,0,0,0,
0,0,0,0,0,821,0,0,0,0,0,0,0,0,643,803
</chunk>
   <chunk x="-7488" y="-48" width="16" height="16">
0,0,0,0,0,0,0,0,0,0,0,0,0,0,0,0,
0,0,0,0,0,0,0,0,0,0,0,0,0,0,0,0,
0,0,0,0,0,0,0,0,0,0,0,0,0,0,0,0,
0,0,0,0,0,0,0,0,0,0,0,0,0,0,0,0,
0,0,0,0,0,0,0,0,0,0,0,0,0,0,0,0,
0,0,0,0,0,0,0,0,0,0,0,0,0,0,0,0,
0,0,0,0,0,0,0,0,0,0,0,0,0,0,0,0,
0,0,0,0,0,0,0,0,0,0,0,0,0,0,0,0,
0,0,0,0,0,0,0,0,0,0,0,0,0,0,0,0,
0,0,0,0,0,0,0,0,0,0,0,0,0,0,0,0,
0,0,0,0,0,0,0,0,0,0,0,0,0,0,0,0,
0,0,0,0,0,0,0,0,0,0,0,0,0,0,0,0,
0,0,0,0,0,0,0,0,0,0,0,0,0,0,0,0,
0,0,0,0,0,0,0,0,0,0,0,0,0,0,0,0,
756,0,0,0,0,0,1411,1412,1413,1414,756,0,0,0,0,803,
804,0,0,0,0,0,1415,1416,1417,1418,0,0,0,608,0,825
</chunk>
   <chunk x="-7472" y="-48" width="16" height="16">
0,0,0,0,0,0,0,0,0,0,0,0,0,0,0,0,
0,0,0,0,0,0,0,0,0,0,0,0,0,0,0,0,
0,0,0,0,0,0,0,0,0,0,0,0,0,0,0,0,
0,0,0,0,0,0,0,0,0,0,0,0,0,0,0,0,
0,0,0,0,0,0,0,0,0,0,0,0,0,0,0,0,
0,0,0,0,0,0,0,0,0,0,0,0,0,0,0,0,
0,0,0,0,0,0,0,0,0,0,0,0,0,0,0,0,
0,0,0,0,0,0,0,0,0,0,0,0,0,0,0,0,
0,0,0,0,0,0,0,0,0,0,0,0,0,0,0,0,
0,0,0,0,0,0,0,0,0,0,0,0,0,0,0,0,
0,0,0,0,0,0,0,0,0,0,0,0,0,0,0,0,
0,0,0,0,0,0,0,0,0,0,0,0,0,0,0,0,
0,0,0,0,0,0,0,0,0,0,0,0,0,0,0,0,
0,0,0,0,0,0,0,0,0,0,0,0,0,0,0,0,
804,0,0,0,0,0,624,0,0,0,0,803,804,0,0,0,
826,0,0,867,0,0,631,0,0,756,0,825,826,0,0,0
</chunk>
   <chunk x="-7504" y="-32" width="16" height="16">
0,0,0,0,0,0,0,0,0,0,0,0,827,828,0,825,
0,0,0,0,0,0,0,0,0,0,0,778,849,850,0,847,
0,0,0,0,0,0,0,0,0,0,0,0,0,0,0,0,
0,0,0,0,0,0,0,0,0,0,0,0,0,0,0,343,
0,0,0,0,0,0,0,0,0,827,828,0,0,0,0,353,
0,0,0,0,0,0,0,0,0,849,850,0,0,800,801,363,
0,0,0,0,0,0,0,907,907,907,907,907,907,907,907,907,
0,0,0,0,0,866,0,0,0,0,0,0,0,823,0,0,
0,0,0,0,0,0,0,0,0,0,0,0,0,0,0,0,
0,0,0,0,0,0,0,0,0,0,0,0,0,0,0,0,
0,0,0,0,0,0,0,0,0,0,0,0,0,0,0,0,
0,0,0,0,0,0,0,0,0,0,0,0,0,0,0,0,
0,0,0,0,0,0,0,0,0,0,0,0,0,0,0,0,
0,0,0,0,0,0,0,0,0,0,0,0,0,0,0,0,
0,0,0,0,0,0,0,0,0,0,0,0,0,0,369,376,
0,0,0,0,0,0,0,0,757,0,0,0,0,0,374,0
</chunk>
   <chunk x="-7488" y="-32" width="16" height="16">
826,607,0,0,0,643,1419,1420,1421,1422,778,827,828,0,0,847,
848,0,756,0,0,0,1423,1424,1425,1426,0,849,850,0,0,0,
0,0,0,0,0,0,1427,1428,1429,1430,0,624,0,0,803,804,
344,0,0,0,0,0,343,344,0,0,0,631,0,0,825,826,
354,0,0,0,0,0,353,354,0,756,0,638,0,0,847,848,
364,0,361,362,367,368,363,364,0,0,0,0,0,0,0,0,
907,907,907,907,907,907,907,907,907,907,907,907,907,907,907,907,
0,867,0,0,0,823,0,0,867,0,0,0,0,0,0,0,
0,0,0,0,0,0,0,0,0,0,0,0,0,0,0,0,
0,0,0,0,0,0,0,0,0,0,0,0,0,0,0,0,
0,0,0,757,0,0,0,757,736,0,0,0,0,0,0,0,
0,0,0,0,0,0,0,0,0,0,0,0,0,0,0,0,
0,0,0,0,0,0,0,0,0,0,0,0,0,0,0,0,
0,0,0,0,0,0,0,0,0,0,0,0,0,0,0,0,
376,376,376,376,376,376,376,376,376,376,376,376,376,376,371,0,
0,0,778,0,0,0,0,0,756,0,0,0,827,828,374,0
</chunk>
   <chunk x="-7472" y="-32" width="16" height="16">
848,0,0,0,0,0,638,0,0,0,0,847,848,0,0,0,
0,0,1398,1399,1400,0,0,0,0,0,0,0,0,0,0,0,
0,0,1398,1399,1400,0,607,0,0,778,0,0,0,0,0,0,
0,0,0,0,0,0,0,0,0,0,758,803,804,0,0,0,
0,0,0,0,0,0,756,0,0,0,0,825,826,0,0,0,
0,0,865,0,0,0,0,0,0,0,0,847,848,0,0,0,
907,907,887,0,0,0,0,0,0,608,0,0,0,0,0,0,
0,0,0,866,0,0,0,0,0,0,0,607,0,0,0,0,
0,0,250,251,252,253,254,0,0,0,0,827,828,0,0,0,
0,0,264,265,266,267,268,0,0,0,643,849,850,0,0,0,
0,0,278,279,280,281,282,0,0,0,0,0,0,0,0,0,
0,0,292,293,294,295,296,0,0,0,0,800,801,0,0,0,
0,0,306,307,308,309,310,0,0,624,0,827,828,0,0,0,
0,0,320,321,322,323,324,0,0,631,0,849,850,0,0,0,
0,0,0,0,0,0,0,0,0,638,0,0,0,0,0,0,
0,0,0,0,0,0,0,0,0,0,0,0,0,0,0,0
</chunk>
   <chunk x="-7504" y="-16" width="16" height="16">
0,0,0,0,0,0,0,0,0,375,376,376,376,376,377,0,
0,0,0,0,0,0,0,0,0,0,0,0,0,0,0,0,
0,0,0,0,0,0,0,0,757,0,0,0,0,0,0,0,
0,0,0,0,0,0,0,0,0,0,0,0,0,0,0,0,
0,0,0,0,0,0,0,0,0,0,0,0,0,0,0,0,
0,0,0,0,0,0,0,0,0,643,0,0,0,0,0,0,
0,0,0,0,0,0,0,0,0,0,0,0,778,0,0,643,
0,0,0,0,0,0,0,0,0,0,0,0,0,0,0,0,
0,0,0,0,0,0,0,0,0,0,0,0,0,0,0,0,
0,0,0,0,0,0,0,0,0,0,0,0,0,0,0,0,
0,0,0,0,0,0,0,0,0,0,0,0,0,0,0,0,
0,0,0,0,0,0,0,0,0,0,0,0,756,0,0,0,
0,0,0,0,0,0,0,0,0,0,0,0,0,0,0,0,
0,0,0,0,0,0,0,0,0,0,0,0,0,0,0,0,
0,0,0,0,0,0,0,0,0,0,0,0,0,0,0,0,
0,0,0,0,0,0,0,0,0,0,0,0,0,0,0,0
</chunk>
   <chunk x="-7488" y="-16" width="16" height="16">
0,0,0,0,0,0,0,0,0,0,0,0,849,850,374,0,
0,0,0,0,369,376,376,376,376,376,371,0,0,0,374,0,
0,0,0,0,372,0,0,0,0,0,374,0,0,0,374,0,
0,0,0,0,372,0,0,0,0,0,374,0,0,0,374,0,
0,0,0,0,372,0,0,0,0,0,374,0,756,0,374,0,
0,0,0,0,372,0,0,0,0,0,374,0,0,0,374,0,
0,756,0,0,372,0,0,0,0,0,374,0,0,0,374,0,
0,0,0,0,375,377,0,0,0,375,377,0,0,0,383,0,
0,0,0,0,0,0,0,0,0,0,0,0,0,0,0,0,
0,0,0,0,0,0,0,0,0,0,0,0,0,0,0,0,
0,0,0,0,0,0,0,0,0,0,0,0,0,0,756,0,
0,0,778,0,0,0,0,0,0,0,0,0,0,0,0,0,
0,0,0,0,0,0,0,757,0,0,736,0,0,0,0,0,
0,0,607,0,0,0,0,0,0,0,0,0,0,0,0,0,
0,0,0,0,0,0,0,0,0,0,0,0,0,0,0,0,
0,0,0,0,0,0,0,0,0,0,0,0,0,0,0,736
</chunk>
   <chunk x="-7472" y="-16" width="16" height="16">
0,0,0,0,0,0,0,0,0,0,0,800,801,0,0,0,
0,0,757,0,0,0,0,0,0,0,607,0,0,0,0,0,
0,0,0,736,756,0,0,0,0,0,0,803,804,0,0,0,
0,0,0,0,0,0,0,0,0,0,0,825,826,0,0,0,
0,0,0,0,0,0,0,0,0,756,0,847,848,0,0,0,
0,0,0,0,757,0,0,0,0,0,0,0,0,0,0,0,
0,0,0,0,0,0,0,0,0,0,0,827,828,0,0,0,
0,0,0,0,0,757,0,0,0,0,0,849,850,0,0,0,
0,0,0,0,0,0,0,0,0,0,0,0,0,0,0,0,
0,0,0,0,0,0,0,0,607,0,0,0,0,0,0,0,
0,0,0,0,608,0,0,0,0,0,0,0,0,0,0,0,
0,0,0,0,0,0,0,607,0,0,0,778,0,0,0,0,
0,0,0,756,0,0,0,0,0,0,0,0,0,0,0,0,
0,0,0,0,0,0,0,0,0,0,0,0,0,0,0,0,
0,0,0,0,0,0,0,778,0,0,803,804,0,0,0,0,
0,0,0,757,0,0,0,0,0,0,825,826,0,0,0,0
</chunk>
   <chunk x="-7488" y="0" width="16" height="16">
0,0,0,0,0,0,0,0,0,0,757,0,0,0,0,0,
0,0,0,0,0,0,0,0,0,0,0,0,0,0,0,0,
0,0,0,0,0,0,0,0,0,0,0,0,0,0,0,0,
0,0,0,0,0,0,0,0,0,0,0,0,0,0,0,0,
0,0,0,0,0,0,0,0,0,0,0,0,0,0,0,0,
0,0,0,0,0,0,0,0,0,0,0,0,0,0,0,0,
0,0,0,0,0,0,0,0,0,0,0,0,0,0,0,0,
0,0,0,0,0,0,0,0,0,0,0,0,0,0,0,0,
0,0,0,0,0,0,0,0,0,0,0,0,0,0,0,0,
0,0,0,0,0,0,0,0,0,0,0,0,0,0,0,0,
0,0,0,0,0,0,0,0,0,0,0,0,0,0,0,0,
0,0,0,0,0,0,0,0,0,0,0,0,0,0,0,0,
0,0,0,0,0,0,0,0,0,0,0,0,0,0,0,0,
0,0,0,0,0,0,0,0,0,0,0,0,0,0,0,0,
0,0,0,0,0,0,0,0,0,0,0,0,0,0,0,0,
0,0,0,0,0,0,0,0,0,0,0,0,0,0,0,0
</chunk>
   <chunk x="-7472" y="0" width="16" height="16">
0,0,0,0,0,0,0,0,0,0,847,848,0,0,0,0,
0,0,0,0,0,0,0,0,0,0,0,0,0,0,0,0,
0,0,0,0,0,0,0,0,0,0,0,0,0,0,0,0,
0,0,0,0,0,0,0,0,0,0,0,0,0,0,0,0,
0,0,0,0,0,0,0,0,0,0,0,0,0,0,0,0,
0,0,0,0,0,0,0,0,0,0,0,0,0,0,0,0,
0,0,0,0,0,0,0,0,0,0,0,0,0,0,0,0,
0,0,0,0,0,0,0,0,0,0,0,0,0,0,0,0,
0,0,0,0,0,0,0,0,0,0,0,0,0,0,0,0,
0,0,0,0,0,0,0,0,0,0,0,0,0,0,0,0,
0,0,0,0,0,0,0,0,0,0,0,0,0,0,0,0,
0,0,0,0,0,0,0,0,0,0,0,0,0,0,0,0,
0,0,0,0,0,0,0,0,0,0,0,0,0,0,0,0,
0,0,0,0,0,0,0,0,0,0,0,0,0,0,0,0,
0,0,0,0,0,0,0,0,0,0,0,0,0,0,0,0,
0,0,0,0,0,0,0,0,0,0,0,0,0,0,0,0
</chunk>
  </data>
 </layer>
 <layer id="4" name="komponen aset" width="20" height="20">
  <data encoding="csv">
   <chunk x="-7504" y="-48" width="16" height="16">
0,0,0,0,0,0,0,0,0,0,0,0,0,0,0,0,
0,0,0,0,0,0,0,0,0,0,0,0,0,0,0,0,
0,0,0,0,0,0,0,0,0,0,0,0,0,0,0,0,
0,0,0,0,0,0,0,0,0,0,0,0,0,0,0,0,
0,0,0,0,0,0,0,0,0,0,0,0,0,0,0,0,
0,0,0,0,0,0,0,0,0,0,0,0,0,0,0,0,
0,0,0,0,0,0,0,0,0,0,0,0,0,0,0,0,
0,0,0,0,0,0,0,0,0,0,0,0,0,0,0,0,
0,0,0,0,0,0,0,0,0,0,0,0,0,0,0,0,
0,0,0,0,0,0,0,0,0,0,0,0,0,0,0,0,
0,0,0,0,0,0,0,0,0,0,0,0,0,0,0,0,
0,0,0,0,0,0,0,0,0,0,0,0,0,0,0,0,
0,0,0,0,0,0,0,0,0,0,0,0,0,0,0,0,
0,0,0,0,0,0,0,0,0,0,0,0,0,0,0,0,
0,0,0,0,0,0,0,0,0,0,0,0,0,0,0,0,
0,0,0,0,0,0,0,0,0,0,608,0,0,0,0,0
</chunk>
   <chunk x="-7504" y="-32" width="16" height="16">
0,0,0,0,0,0,0,0,0,0,0,0,0,0,0,0,
0,0,0,0,0,0,0,0,0,0,0,0,0,0,0,0,
0,0,0,0,0,0,1411,1412,1413,1414,0,0,0,0,0,0,
0,0,0,0,0,0,1415,1416,1417,1418,0,0,0,0,0,0,
0,0,0,0,0,0,1419,1420,1421,1422,0,0,608,0,0,0,
0,0,0,0,0,0,1423,1424,1425,1426,0,0,0,0,0,0,
0,0,0,0,0,0,1427,1428,1429,1430,0,0,0,0,0,0,
0,0,0,0,0,0,0,0,0,0,0,0,0,0,1714,1715,
0,0,0,0,0,0,0,343,344,0,0,0,0,0,1854,1855,
0,0,0,0,0,0,0,353,354,367,368,0,0,0,1994,1995,
0,0,0,0,0,0,0,363,364,0,0,0,0,0,2134,2135,
0,0,0,0,0,0,0,367,368,0,511,0,0,0,2274,2275,
0,0,0,0,0,0,0,226,0,0,0,0,0,0,2414,2415,
0,0,0,0,0,0,0,226,0,0,0,0,0,0,0,0,
0,0,0,0,0,0,0,367,368,0,0,0,0,0,0,0,
0,0,0,0,0,0,0,226,0,0,0,508,0,0,0,0
</chunk>
   <chunk x="-7488" y="-32" width="16" height="16">
0,0,0,0,0,0,0,0,0,0,0,0,0,0,0,0,
0,0,0,0,0,0,0,0,0,757,0,0,0,0,0,0,
0,0,0,0,0,0,0,0,0,0,0,0,0,0,0,0,
0,0,0,0,0,0,0,0,0,0,0,0,0,0,0,0,
0,0,0,0,0,0,0,0,0,0,0,0,0,0,0,736,
0,0,0,0,0,0,0,0,0,0,607,0,0,0,0,0,
0,0,0,0,0,0,0,0,0,0,0,0,0,0,0,0,
1716,1717,0,0,0,0,0,0,0,0,0,821,821,821,821,821,
1856,1857,0,0,0,0,0,0,0,0,0,819,0,0,819,819,
1996,1997,0,0,0,345,346,0,0,0,0,0,0,0,0,0,
2136,2137,0,0,0,355,356,0,0,0,0,0,0,0,0,672,
2276,2277,607,0,0,365,366,367,368,0,0,0,0,0,607,0,
2416,2417,0,0,0,0,0,0,0,0,0,0,0,0,0,0,
0,0,0,0,0,0,0,0,0,0,0,0,0,0,0,0,
0,0,0,0,0,0,0,0,0,0,0,0,0,0,0,0,
0,0,0,0,0,669,0,0,0,0,0,0,0,0,0,0
</chunk>
   <chunk x="-7472" y="-32" width="16" height="16">
0,0,0,0,0,0,0,0,0,0,0,0,0,0,0,0,
0,0,0,0,0,0,0,0,0,0,0,0,0,0,0,0,
0,0,0,0,0,0,0,0,0,0,0,0,0,0,0,0,
607,0,0,0,0,0,0,0,0,0,0,0,0,0,0,0,
0,0,0,0,0,0,0,0,0,0,0,0,0,0,0,0,
0,0,0,0,0,0,0,0,0,0,0,0,0,0,0,0,
0,0,0,0,0,0,0,0,0,0,0,0,0,0,0,0,
821,821,821,0,0,0,672,0,0,0,0,0,0,0,0,0,
819,819,819,0,0,0,0,0,0,0,0,0,0,0,0,0,
624,0,0,0,0,0,0,0,0,0,0,0,0,0,0,0,
631,0,0,0,0,0,0,0,0,0,0,0,0,0,0,0,
638,0,0,0,0,0,0,0,0,0,0,0,0,0,0,0,
0,0,0,0,0,0,0,0,0,0,0,0,0,0,0,0,
0,367,368,0,0,0,0,0,0,0,0,0,0,0,0,0,
0,0,0,0,0,0,0,0,0,0,0,0,0,0,0,0,
0,0,0,0,0,0,0,0,0,0,0,0,0,0,0,0
</chunk>
   <chunk x="-7504" y="-16" width="16" height="16">
0,0,0,0,0,0,0,226,0,0,0,0,0,0,0,0,
0,0,0,0,0,0,0,226,0,153,156,153,156,153,156,153,
0,0,0,0,0,0,0,226,0,165,180,165,180,165,180,117,
0,0,0,0,0,0,0,226,0,165,180,165,180,165,180,117,
0,0,0,0,0,0,0,226,0,189,192,189,192,189,192,141,
0,0,0,0,0,0,0,226,0,0,0,0,0,0,0,0,
0,0,0,0,0,0,0,226,0,0,457,0,0,0,0,0,
0,0,0,0,0,0,0,345,346,0,0,0,0,0,672,0,
0,0,0,0,0,0,0,355,356,0,0,0,0,0,0,0,
0,0,0,0,0,0,0,365,366,0,0,0,0,0,0,0,
0,0,0,0,0,0,0,226,0,0,0,0,0,0,0,0,
0,0,0,0,0,0,0,0,0,0,0,0,0,0,0,0,
0,0,0,0,0,0,0,0,0,0,0,0,0,0,608,0,
0,0,0,0,0,0,0,0,0,0,0,0,0,0,0,0,
0,0,0,0,0,0,0,0,0,0,0,0,0,0,0,0,
0,0,0,0,0,0,0,0,0,0,0,0,0,0,0,0
</chunk>
   <chunk x="-7488" y="-16" width="16" height="16">
0,0,0,0,0,0,0,0,0,0,0,0,0,0,0,0,
108,153,156,0,0,250,251,252,253,254,0,0,0,0,0,0,
132,117,132,0,0,264,265,266,267,268,0,0,0,0,0,0,
132,117,132,0,0,278,279,280,281,282,0,0,0,0,0,0,
144,141,144,0,0,292,293,294,295,296,0,669,0,0,0,0,
0,0,0,0,0,306,307,308,309,310,0,0,0,0,0,0,
0,0,0,0,0,320,321,322,323,324,0,0,0,0,0,0,
0,0,0,0,0,0,0,0,0,0,0,0,0,0,0,0,
0,0,0,624,0,0,0,0,0,0,0,0,0,0,0,0,
0,0,0,631,0,0,0,0,0,0,0,0,0,0,0,0,
0,0,0,638,0,0,0,0,0,758,0,778,0,0,0,0,
0,0,0,0,0,0,0,0,669,0,0,0,0,0,0,0,
0,0,0,0,0,0,0,0,0,0,0,0,0,0,0,0,
0,0,0,0,0,0,0,0,0,0,0,0,0,0,0,0,
0,0,0,0,0,0,0,0,0,0,0,0,0,0,0,0,
0,0,0,0,0,0,0,0,0,0,0,0,0,0,0,0
</chunk>
   <chunk x="-7472" y="-16" width="16" height="16">
0,0,0,0,0,0,0,0,0,0,0,0,0,0,0,0,
0,0,0,0,0,0,0,0,0,0,0,0,0,0,0,0,
0,367,368,0,0,0,0,0,0,0,0,0,0,0,0,0,
0,0,0,0,1411,1412,1413,1414,0,0,0,0,0,0,0,0,
0,0,0,0,1415,1416,1417,1418,0,0,0,0,0,0,0,0,
0,0,736,0,1419,1420,1421,1422,0,0,0,0,0,0,0,0,
0,0,0,0,1423,1424,1425,1426,0,0,0,0,0,0,0,0,
0,0,0,0,1427,1428,1429,1430,0,0,0,0,0,0,0,0,
624,0,0,0,0,0,0,0,0,0,0,0,0,0,0,0,
631,0,0,0,0,0,0,0,0,0,0,0,0,0,0,0,
638,0,0,0,0,0,0,0,0,0,0,0,0,0,0,0,
0,0,0,0,0,0,0,0,0,0,0,0,0,0,0,0,
0,0,0,0,0,0,0,0,0,0,0,0,0,0,0,0,
0,0,0,0,0,0,0,0,0,0,0,0,0,0,0,0,
0,0,0,0,0,0,0,0,0,0,0,0,0,0,0,0,
0,0,0,0,0,0,0,0,0,0,0,0,0,0,0,0
</chunk>
   <chunk x="-7472" y="0" width="16" height="16">
0,0,0,0,641,642,0,0,608,0,0,0,0,0,0,0,
0,0,0,0,0,0,0,0,0,0,0,0,0,0,0,0,
0,0,0,0,0,0,0,0,0,0,0,0,0,0,0,0,
0,0,0,0,0,0,0,0,0,0,0,0,0,0,0,0,
0,0,0,0,0,0,0,0,0,0,0,0,0,0,0,0,
0,0,0,0,0,0,0,0,0,0,0,0,0,0,0,0,
0,0,0,0,0,0,0,0,0,0,0,0,0,0,0,0,
0,0,0,0,0,0,0,0,0,0,0,0,0,0,0,0,
0,0,0,0,0,0,0,0,0,0,0,0,0,0,0,0,
0,0,0,0,0,0,0,0,0,0,0,0,0,0,0,0,
0,0,0,0,0,0,0,0,0,0,0,0,0,0,0,0,
0,0,0,0,0,0,0,0,0,0,0,0,0,0,0,0,
0,0,0,0,0,0,0,0,0,0,0,0,0,0,0,0,
0,0,0,0,0,0,0,0,0,0,0,0,0,0,0,0,
0,0,0,0,0,0,0,0,0,0,0,0,0,0,0,0,
0,0,0,0,0,0,0,0,0,0,0,0,0,0,0,0
</chunk>
  </data>
 </layer>
 <layer id="6" name="depan komponen aset1" width="20" height="20">
  <data encoding="csv">
   <chunk x="-7504" y="-48" width="16" height="16">
0,0,0,0,0,0,0,0,0,0,0,0,0,0,0,0,
0,0,0,0,0,0,0,0,0,0,0,0,0,0,0,0,
0,0,0,0,0,0,0,0,0,0,0,0,0,0,0,0,
0,0,0,0,0,0,0,0,0,0,0,0,0,0,0,0,
0,0,0,0,0,0,0,0,0,0,0,0,0,0,0,0,
0,0,0,0,0,0,0,0,0,0,0,0,0,0,0,0,
0,0,0,0,0,0,0,0,0,0,0,0,0,0,0,0,
0,0,0,0,0,0,0,0,0,0,0,0,0,0,0,0,
0,0,0,0,0,0,0,0,0,0,0,0,0,0,0,0,
0,0,0,0,0,0,0,0,0,0,0,0,0,0,0,0,
0,0,0,0,0,0,0,0,0,0,0,0,0,0,0,0,
0,0,0,0,0,0,0,0,0,0,0,0,0,0,0,0,
0,0,0,0,0,0,0,0,0,0,0,0,0,0,0,0,
0,0,0,0,0,0,0,0,0,0,0,0,0,0,0,0,
0,0,0,0,0,0,0,0,0,0,0,0,0,0,0,0,
0,0,0,0,0,0,0,0,0,624,0,0,0,0,0,0
</chunk>
   <chunk x="-7488" y="-48" width="16" height="16">
0,0,0,0,0,0,0,0,0,0,0,0,0,0,0,0,
0,0,0,0,0,0,0,0,0,0,0,0,0,0,0,0,
0,0,0,0,0,0,0,0,0,0,0,0,0,0,0,0,
0,0,0,0,0,0,0,0,0,0,0,0,0,0,0,0,
0,0,0,0,0,0,0,0,0,0,0,0,0,0,0,0,
0,0,0,0,0,0,0,0,0,0,0,0,0,0,0,0,
0,0,0,0,0,0,0,0,0,0,0,0,0,0,0,0,
0,0,0,0,0,0,0,0,0,0,0,0,0,0,0,0,
0,0,0,0,0,0,0,0,0,0,0,0,0,0,0,0,
0,0,0,0,0,0,0,0,0,0,0,0,0,0,0,0,
0,0,0,0,0,0,0,0,0,0,0,0,0,0,0,0,
0,0,0,0,0,0,0,0,0,0,0,0,0,0,0,0,
0,0,0,0,0,0,0,0,0,0,0,0,0,0,0,0,
0,0,0,0,0,0,0,0,0,0,0,0,0,0,0,0,
0,0,0,0,0,0,0,0,0,0,0,0,0,0,0,0,
0,0,0,0,624,0,0,0,0,0,0,0,0,0,0,0
</chunk>
   <chunk x="-7504" y="-32" width="16" height="16">
0,0,0,0,0,0,0,0,0,631,0,0,0,0,0,0,
0,0,0,0,0,0,0,0,0,638,0,0,0,0,0,0,
0,0,0,0,0,0,0,0,0,0,0,0,0,0,0,0,
0,0,0,0,0,0,0,0,0,0,0,0,0,0,0,0,
0,0,0,0,0,0,0,0,0,0,0,0,0,0,0,0,
0,0,0,0,0,0,0,0,0,0,0,0,0,0,0,0,
0,0,0,0,0,0,0,0,0,0,0,0,0,0,0,0,
0,0,0,0,0,0,0,0,0,0,0,0,0,0,0,0,
0,0,0,0,0,0,0,0,0,0,0,0,0,0,0,0,
0,0,0,0,0,0,0,0,0,0,0,0,606,0,0,0,
0,0,0,0,0,0,0,0,0,0,0,0,0,0,0,0,
0,0,0,0,0,0,0,0,0,0,0,0,0,0,0,0,
0,0,0,0,0,0,0,827,828,0,0,0,0,0,0,0,
0,0,0,0,0,0,0,849,850,0,0,0,0,0,0,0,
0,0,0,0,0,0,0,0,0,0,0,0,0,0,0,0,
0,0,0,0,0,0,0,803,804,0,0,0,0,0,0,0
</chunk>
   <chunk x="-7488" y="-32" width="16" height="16">
0,0,0,0,631,0,0,0,0,0,0,0,0,0,0,0,
0,0,0,0,638,0,0,0,0,0,0,0,0,0,0,0,
0,0,0,0,0,0,0,0,0,0,0,0,0,0,0,0,
0,0,0,0,0,0,0,0,0,0,0,0,0,0,0,0,
0,0,0,641,642,0,0,0,0,0,0,0,0,0,0,0,
0,0,0,0,0,0,0,0,0,0,0,0,0,0,0,0,
0,0,0,0,0,0,0,0,0,0,0,0,1396,1396,0,0,
0,0,0,0,0,0,0,844,0,0,0,0,1401,1401,0,867,
0,0,0,0,0,0,0,0,0,0,0,0,1406,1406,0,0,
0,0,0,0,0,0,0,0,0,803,804,624,0,0,0,0,
0,0,0,0,1234,1235,0,0,0,825,826,631,0,0,0,0,
0,0,0,0,0,0,0,0,0,847,848,638,0,0,0,0,
0,0,0,0,0,0,0,0,0,0,0,0,0,0,0,0,
0,0,0,0,0,0,0,0,0,0,0,0,0,0,0,0,
0,0,0,0,0,0,0,0,0,0,0,0,0,0,0,0,
0,0,0,0,0,0,0,0,0,0,0,0,0,0,0,0
</chunk>
   <chunk x="-7472" y="-32" width="16" height="16">
0,0,0,0,0,0,0,0,0,0,0,0,0,0,0,0,
0,0,0,0,0,0,624,0,0,0,0,0,0,0,0,0,
0,0,0,0,0,0,631,0,0,0,0,0,0,0,0,0,
0,0,0,0,0,0,638,0,0,0,0,0,0,0,0,0,
0,0,0,0,0,0,0,0,0,0,0,0,0,0,0,0,
0,0,0,868,0,0,0,0,0,0,0,0,0,0,0,0,
0,0,0,0,0,367,368,0,0,0,0,0,0,0,0,0,
844,0,0,0,0,0,0,0,0,0,0,0,0,0,0,0,
0,0,0,0,0,0,0,0,0,0,0,0,0,0,0,0,
0,0,0,0,0,0,0,0,0,0,0,0,0,0,0,0,
0,0,0,0,0,0,0,0,0,0,0,0,0,0,0,0,
0,0,0,0,0,0,0,0,0,641,642,0,0,0,0,0,
0,0,0,0,0,0,0,0,0,0,0,0,0,0,0,0,
0,0,0,0,0,0,0,0,0,0,0,0,0,0,0,0,
0,0,0,0,0,0,624,0,0,0,0,0,0,0,0,0,
0,803,804,0,0,0,631,0,0,0,0,0,0,0,0,0
</chunk>
   <chunk x="-7504" y="-16" width="16" height="16">
0,0,0,0,0,0,0,825,826,0,0,0,0,0,0,0,
0,0,0,0,0,0,0,847,848,0,0,0,0,0,0,0,
0,0,0,0,0,0,0,803,804,0,0,0,0,0,0,0,
0,0,0,0,0,0,0,825,826,0,0,0,0,0,0,0,
0,0,0,0,0,0,0,847,848,0,0,0,0,0,0,0,
0,0,0,0,0,0,0,0,0,0,624,0,0,0,0,0,
0,0,0,0,0,0,0,0,0,0,631,0,0,545,0,0,
0,0,0,0,0,0,0,0,0,0,638,0,0,0,0,0,
0,0,0,0,0,0,0,0,0,0,0,0,0,0,0,0,
0,0,0,0,0,0,0,0,0,0,0,0,0,0,0,0,
0,0,0,0,0,0,0,0,0,0,0,0,0,0,0,0,
0,0,0,0,0,0,0,0,0,0,0,0,0,0,0,0,
0,0,0,0,0,0,0,0,0,0,0,0,0,0,0,0,
0,0,0,0,0,0,0,823,0,0,0,0,0,0,0,0,
0,0,0,0,0,0,0,0,0,867,0,823,0,0,0,0,
0,0,0,0,0,0,0,0,0,0,823,0,0,867,0,823
</chunk>
   <chunk x="-7488" y="-16" width="16" height="16">
0,0,0,0,0,0,0,0,0,757,0,0,757,0,0,0,
0,0,0,0,0,0,0,0,0,0,0,0,0,736,0,0,
0,0,0,0,0,0,0,0,0,0,0,0,0,0,0,0,
0,0,0,0,0,0,0,0,0,0,0,0,0,0,0,0,
0,0,0,0,0,0,0,0,0,0,0,0,0,0,0,0,
0,0,0,0,0,0,0,0,0,0,0,0,0,0,0,0,
0,0,0,0,0,0,0,0,0,0,0,0,0,0,0,0,
0,0,0,0,0,0,606,0,0,0,0,0,0,0,0,0,
0,0,0,0,0,0,0,0,0,0,0,0,0,0,0,0,
0,0,0,0,0,0,0,0,0,0,0,0,0,0,0,0,
0,0,0,0,0,0,0,0,0,0,0,0,0,0,0,0,
0,0,0,0,0,0,0,0,0,0,0,0,0,0,0,0,
0,0,0,693,694,695,696,693,694,695,696,693,694,695,696,693,
0,0,0,715,716,717,718,715,716,717,718,715,716,717,718,715,
0,0,0,737,738,739,740,737,738,739,740,737,738,739,740,737,
0,0,0,759,760,761,762,759,760,761,762,759,760,761,762,759
</chunk>
   <chunk x="-7472" y="-16" width="16" height="16">
0,825,826,0,0,0,638,0,0,0,0,0,0,0,0,0,
0,847,848,0,0,0,0,0,0,0,0,0,0,0,0,0,
0,0,0,0,0,0,0,0,0,0,0,0,0,0,0,0,
0,827,828,0,0,0,0,0,0,0,0,0,0,0,0,0,
0,849,850,0,0,0,0,0,0,624,0,0,0,0,0,0,
0,827,828,0,0,0,0,0,0,631,0,0,0,0,0,0,
0,849,850,0,0,0,0,0,0,638,0,0,0,0,0,0,
0,0,0,0,0,0,0,0,0,0,0,0,0,0,0,0,
0,0,0,0,0,0,0,0,0,0,0,0,0,0,0,0,
0,0,0,0,0,0,0,0,0,0,0,0,0,0,0,0,
0,0,0,0,0,0,0,0,0,0,0,0,0,0,0,0,
0,0,0,0,0,0,0,0,0,0,0,0,0,0,0,0,
694,695,696,0,0,0,0,0,0,0,0,0,0,0,0,0,
716,717,718,0,0,0,0,0,0,0,0,0,0,0,0,0,
738,739,740,0,0,0,0,0,0,0,0,0,0,0,0,0,
760,761,762,0,0,0,0,0,0,0,0,0,0,0,0,0
</chunk>
   <chunk x="-7488" y="0" width="16" height="16">
0,0,0,781,782,783,784,781,782,783,784,781,782,783,784,781,
0,0,0,0,0,0,0,0,0,0,0,0,0,0,0,0,
0,0,0,0,0,0,0,0,0,0,0,0,0,0,0,0,
0,0,0,0,0,0,0,0,0,0,0,0,0,0,0,0,
0,0,0,0,0,0,0,0,0,0,0,0,0,0,0,0,
0,0,0,0,0,0,0,0,0,0,0,0,0,0,0,0,
0,0,0,0,0,0,0,0,0,0,0,0,0,0,0,0,
0,0,0,0,0,0,0,0,0,0,0,0,0,0,0,0,
0,0,0,0,0,0,0,0,0,0,0,0,0,0,0,0,
0,0,0,0,0,0,0,0,0,0,0,0,0,0,0,0,
0,0,0,0,0,0,0,0,0,0,0,0,0,0,0,0,
0,0,0,0,0,0,0,0,0,0,0,0,0,0,0,0,
0,0,0,0,0,0,0,0,0,0,0,0,0,0,0,0,
0,0,0,0,0,0,0,0,0,0,0,0,0,0,0,0,
0,0,0,0,0,0,0,0,0,0,0,0,0,0,0,0,
0,0,0,0,0,0,0,0,0,0,0,0,0,0,0,0
</chunk>
   <chunk x="-7472" y="0" width="16" height="16">
782,783,784,0,0,0,367,368,0,0,0,0,0,0,0,0,
0,0,0,0,0,0,0,0,0,0,0,0,0,0,0,0,
0,0,0,0,0,0,0,0,0,0,0,0,0,0,0,0,
0,0,0,0,0,0,0,0,0,0,0,0,0,0,0,0,
0,0,0,0,0,0,0,0,0,0,0,0,0,0,0,0,
0,0,0,0,0,0,0,0,0,0,0,0,0,0,0,0,
0,0,0,0,0,0,0,0,0,0,0,0,0,0,0,0,
0,0,0,0,0,0,0,0,0,0,0,0,0,0,0,0,
0,0,0,0,0,0,0,0,0,0,0,0,0,0,0,0,
0,0,0,0,0,0,0,0,0,0,0,0,0,0,0,0,
0,0,0,0,0,0,0,0,0,0,0,0,0,0,0,0,
0,0,0,0,0,0,0,0,0,0,0,0,0,0,0,0,
0,0,0,0,0,0,0,0,0,0,0,0,0,0,0,0,
0,0,0,0,0,0,0,0,0,0,0,0,0,0,0,0,
0,0,0,0,0,0,0,0,0,0,0,0,0,0,0,0,
0,0,0,0,0,0,0,0,0,0,0,0,0,0,0,0
</chunk>
  </data>
 </layer>
 <layer id="8" name="aset paling depat" width="20" height="20">
  <data encoding="csv">
   <chunk x="-7488" y="-32" width="16" height="16">
0,0,0,0,0,0,0,0,0,0,0,0,0,0,0,0,
0,0,0,0,0,0,0,0,0,0,0,0,0,0,0,0,
0,0,0,0,0,0,0,0,0,0,0,0,0,0,0,0,
0,0,0,0,0,0,0,0,0,0,0,0,0,0,0,0,
0,0,0,0,0,0,0,757,0,0,0,0,0,0,0,0,
0,0,0,0,0,0,0,0,0,0,0,0,0,0,0,757,
0,0,0,0,0,0,0,0,0,0,0,0,0,0,0,0,
0,0,0,0,0,0,0,0,0,0,0,0,0,0,0,0,
0,0,0,0,0,0,0,0,0,0,0,0,0,0,0,0,
0,0,0,0,0,0,0,0,0,0,0,0,0,0,756,0,
0,0,0,0,0,0,0,0,0,0,0,0,0,0,0,0,
0,0,0,0,0,0,0,0,0,0,0,0,0,0,0,758,
0,0,0,0,0,0,0,0,0,0,0,0,0,0,0,0,
0,0,0,0,0,0,0,0,0,0,0,0,0,0,0,0,
0,0,0,0,0,0,0,0,0,0,0,0,0,0,0,0,
0,0,0,0,0,0,0,0,0,0,0,0,0,0,0,0
</chunk>
   <chunk x="-7472" y="-32" width="16" height="16">
0,0,0,0,0,0,0,0,0,0,0,0,0,0,0,0,
0,0,0,0,0,0,0,0,0,0,0,0,0,0,0,0,
0,0,0,0,0,0,0,0,0,0,0,0,0,0,0,0,
0,0,0,0,0,0,0,0,0,0,0,0,0,0,0,0,
0,0,0,0,0,0,0,0,0,0,0,0,0,0,0,0,
0,0,0,0,0,0,0,0,0,0,0,0,0,0,0,0,
0,0,0,0,0,0,0,0,0,0,0,0,0,0,0,0,
0,0,0,0,0,0,0,0,0,0,0,0,0,0,0,0,
0,0,0,0,0,0,758,0,0,0,0,0,0,0,0,0,
0,0,0,0,0,0,0,0,0,0,0,0,0,0,0,0,
0,0,0,0,0,0,0,0,0,0,0,0,0,0,0,0,
0,0,0,0,0,0,0,0,0,0,0,0,0,0,0,0,
0,0,0,0,0,0,0,0,0,0,0,0,0,0,0,0,
0,0,0,0,0,0,0,0,0,0,0,0,0,0,0,0,
0,0,0,0,0,0,0,0,0,0,0,0,0,0,0,0,
0,0,0,0,0,0,0,0,0,0,0,0,0,0,0,0
</chunk>
   <chunk x="-7504" y="-16" width="16" height="16">
0,0,0,0,0,0,0,0,0,0,0,0,0,0,0,0,
0,0,0,0,0,0,0,0,0,0,0,0,0,0,0,0,
0,0,0,0,0,0,0,0,0,0,0,0,0,0,0,0,
0,0,0,0,0,0,0,0,0,0,0,0,0,0,0,0,
0,0,0,0,0,0,0,0,0,0,0,0,0,0,0,0,
0,0,0,0,0,0,0,0,0,0,0,0,0,0,0,0,
0,0,0,0,0,0,0,0,0,0,0,0,0,0,0,0,
0,0,0,0,0,0,0,0,0,0,0,0,0,0,0,0,
0,0,0,0,0,0,0,0,0,0,0,0,0,0,0,0,
0,0,0,0,0,0,0,0,0,0,0,0,0,0,0,0,
0,0,0,0,0,0,0,0,0,0,0,0,0,0,0,758,
0,0,0,0,0,0,0,0,0,0,0,0,0,0,0,0,
0,0,0,0,0,0,0,0,0,0,0,0,0,0,0,0,
0,0,0,0,0,0,0,0,0,0,0,0,0,0,0,0,
0,0,0,0,0,0,0,0,0,0,0,0,0,0,0,0,
0,0,0,0,0,0,0,0,0,0,0,0,0,0,0,0
</chunk>
   <chunk x="-7488" y="-16" width="16" height="16">
0,0,0,0,758,0,0,0,0,0,0,0,0,0,0,0,
0,0,0,0,0,0,0,0,0,0,0,0,0,0,0,0,
0,0,0,0,0,0,0,0,0,0,0,0,0,758,0,0,
0,0,0,0,0,0,0,0,0,0,0,0,0,0,0,0,
0,0,0,0,0,0,0,0,0,0,0,0,0,0,0,0,
0,0,0,0,0,0,0,0,0,0,0,0,0,0,0,0,
0,0,0,0,0,0,0,0,0,0,0,758,0,0,0,0,
0,0,0,0,0,0,0,0,0,0,0,0,0,0,0,0,
0,0,0,0,0,0,0,0,0,0,0,0,0,0,0,0,
0,0,0,0,0,0,0,0,0,0,0,0,0,0,0,0,
0,0,0,0,0,0,779,0,0,0,0,0,0,0,0,0,
0,0,0,0,0,0,0,0,0,0,0,0,0,0,0,0,
0,0,0,0,0,0,0,0,0,0,0,0,0,0,0,0,
0,0,0,0,0,0,0,0,0,0,0,0,0,0,0,0,
0,0,0,0,0,0,0,0,0,0,0,0,0,0,0,0,
0,0,0,0,0,0,0,0,0,0,0,0,0,0,0,0
</chunk>
   <chunk x="-7472" y="-16" width="16" height="16">
0,0,0,0,778,0,0,0,0,0,0,0,0,0,0,0,
0,0,0,0,0,0,0,0,0,0,0,0,0,0,0,0,
0,0,0,0,0,0,0,0,0,756,0,0,736,0,0,0,
0,0,0,0,0,0,0,0,0,0,0,0,0,0,0,0,
0,0,0,778,0,0,0,0,0,0,0,0,0,0,0,0,
0,0,0,0,0,0,0,0,0,0,0,757,0,0,0,0,
0,0,0,0,0,0,0,0,0,0,0,0,0,0,0,0,
0,0,0,0,0,0,0,0,0,0,0,0,0,0,0,0,
0,0,0,0,0,0,0,0,0,0,0,0,0,0,0,0,
0,0,0,0,0,0,0,0,0,0,0,0,0,0,0,0,
0,0,0,0,0,0,0,0,0,0,0,0,0,0,0,0,
0,0,0,0,0,0,0,0,0,0,0,0,0,0,0,0,
0,0,0,0,0,0,0,0,0,0,0,0,0,0,0,0,
0,0,0,0,0,0,0,0,0,0,0,0,0,0,0,0,
0,0,0,0,0,0,0,0,0,0,0,0,0,0,0,0,
0,0,0,0,0,0,0,0,0,0,0,0,0,0,0,0
</chunk>
  </data>
 </layer>
</map>
